icon-svg/02tv.svg

<svg xmlns="http://www.w3.org/2000/svg" fill="#44739e" viewBox="0 0 24 24"><path d="m16.5 8.261 2.121 6.123h1.467L22 8.261h-1.074l-1.571 4.768-1.546-4.768zm-5.475 0h4.898v.897h-1.781l-.052 5.226h-1.231V9.158h-1.834zm-1.242 7.478v-.42H8.7c.435-.427 1-.946 1-1.511a.733.733 0 0 0-.835-.779 1.78 1.78 0 0 0-.791.191l.043.443a1.147 1.147 0 0 1 .614-.214c.217 0 .436.114.436.359 0 .488-.905 1.244-1.153 1.485v.446h1.77M2 11.411a3.063 3.063 0 1 0 6.124 0 2.968 2.968 0 0 0-3.057-3.15A2.971 2.971 0 0 0 2 11.411m1.18 0a2.055 2.055 0 0 1 1.887-2.253 2.054 2.054 0 0 1 1.876 2.253 2.016 2.016 0 0 1-1.876 2.253 2.018 2.018 0 0 1-1.887-2.253"/></svg>

<?xml version="1.0" encoding="UTF-8"?>
<svg width="24px" fill="#44739e" height="24px" viewBox="0 0 24 24" version="1.1" xmlns="http://www.w3.org/2000/svg" xmlns:xlink="http://www.w3.org/1999/xlink">
            <path d="m 16.5,8.261 2.121,6.123 h 1.467 L 22,8.261 h -1.074 l -1.571,4.768 -1.546,-4.768 z m -5.475,0 h 4.898 V 9.158 H 14.142 L 14.09,14.384 H 12.859 V 9.158 h -1.834 z m -1.242,7.478 v -0.42 H 8.7 c 0.435,-0.427 1,-0.946 1,-1.511 A 0.733,0.733 0 0 0 8.865,13.029 1.78,1.78 0 0 0 8.074,13.22 l 0.043,0.443 a 1.147,1.147 0 0 1 0.614,-0.214 c 0.217,0 0.436,0.114 0.436,0.359 0,0.488 -0.905,1.244 -1.153,1.485 v 0.446 h 1.77 M 2,11.411 a 3.063,3.063 0 1 0 6.124,0 A 2.968,2.968 0 0 0 5.067,8.261 2.971,2.971 0 0 0 2,11.411 m 1.18,0 A 2.055,2.055 0 0 1 5.067,9.158 2.054,2.054 0 0 1 6.943,11.411 2.016,2.016 0 0 1 5.067,13.664 2.018,2.018 0 0 1 3.18,11.411"/>

</svg>
